icons/svg/education/college.svg

<?xml version="1.0" encoding="UTF-8" standalone="no"?>
<!-- Created with Inkscape (http://www.inkscape.org/) -->

<svg
   xmlns:dc="http://purl.org/dc/elements/1.1/"
   xmlns:cc="http://creativecommons.org/ns#"
   xmlns:rdf="http://www.w3.org/1999/02/22-rdf-syntax-ns#"
   xmlns:svg="http://www.w3.org/2000/svg"
   xmlns="http://www.w3.org/2000/svg"
   xmlns:sodipodi="http://sodipodi.sourceforge.net/DTD/sodipodi-0.dtd"
   xmlns:inkscape="http://www.inkscape.org/namespaces/inkscape"
   version="1.0"
   width="580"
   height="580"
   id="svg2"
   sodipodi:version="0.32"
   inkscape:version="0.47 r22583"
   sodipodi:docname="education_colledge.svg"
   inkscape:output_extension="org.inkscape.output.svg.inkscape">
  <metadata
     id="metadata2975">
    <rdf:RDF>
      <cc:Work
         rdf:about="">
        <dc:format>image/svg+xml</dc:format>
        <dc:type
           rdf:resource="http://purl.org/dc/dcmitype/StillImage" />
        <cc:license
           rdf:resource="http://web.resource.org/cc/PublicDomain" />
        <dc:language>en</dc:language>
        <dc:title />
      </cc:Work>
    </rdf:RDF>
  </metadata>
  <sodipodi:namedview
     inkscape:window-height="973"
     inkscape:window-width="1280"
     inkscape:pageshadow="2"
     inkscape:pageopacity="0.0"
     guidetolerance="10.0"
     gridtolerance="10.0"
     objecttolerance="10.0"
     borderopacity="1.0"
     bordercolor="#666666"
     pagecolor="#ffffff"
     id="base"
     inkscape:zoom="0.92167712"
     inkscape:cx="306.60958"
     inkscape:cy="110.14597"
     inkscape:window-x="0"
     inkscape:window-y="0"
     inkscape:current-layer="svg2"
     showgrid="false"
     inkscape:window-maximized="1" />
  <defs
     id="defs4">
    <inkscape:perspective
       sodipodi:type="inkscape:persp3d"
       inkscape:vp_x="0 : 290 : 1"
       inkscape:vp_y="0 : 1000 : 0"
       inkscape:vp_z="580 : 290 : 1"
       inkscape:persp3d-origin="290 : 193.33333 : 1"
       id="perspective2441" />
    <inkscape:perspective
       id="perspective3452"
       inkscape:persp3d-origin="30 : 20 : 1"
       inkscape:vp_z="60 : 30 : 1"
       inkscape:vp_y="0 : 1000 : 0"
       inkscape:vp_x="0 : 30 : 1"
       sodipodi:type="inkscape:persp3d" />
    <symbol
       viewBox="244.5 110 489 219.9"
       id="symbol-university">
      <path
         id="path4460"
         d="M79,43l57,119c0,0,21-96,104-96s124,106,124,106l43-133l82-17L0,17L79,43z" />
      <path
         id="path4462"
         d="M94,176l-21,39"
         stroke-width="20"
         stroke="#000000"
         fill="none" />
      <path
         id="path4464"
         d="M300,19c0,10.5-22.6,19-50.5,19S199,29.5,199,19s22.6-19,50.5-19S300,8.5,300,19z" />
      <path
         id="path4466"
         d="M112,216l-16-38L64,88c0,0-9-8-4-35s16-24,16-24"
         stroke-width="20"
         stroke="#000000"
         ill="none" />
    </symbol>
    <inkscape:perspective
       id="perspective4471"
       inkscape:persp3d-origin="372.04724 : 350.78739 : 1"
       inkscape:vp_z="744.09448 : 526.18109 : 1"
       inkscape:vp_y="0 : 1000 : 0"
       inkscape:vp_x="0 : 526.18109 : 1"
       sodipodi:type="inkscape:persp3d" />
    <inkscape:perspective
       id="perspective4668"
       inkscape:persp3d-origin="6 : 4 : 1"
       inkscape:vp_z="12 : 6 : 1"
       inkscape:vp_y="0 : 1000 : 0"
       inkscape:vp_x="0 : 6 : 1"
       sodipodi:type="inkscape:persp3d" />
    <marker
       viewBox="0 0 10 10"
       refY="5"
       refX="10"
       orient="auto"
       markerWidth="4"
       markerUnits="strokeWidth"
       markerHeight="3"
       id="ArrowStart">
      <path
         id="path3634"
         d="M 10 0 L 0 5 L 10 10 z" />
    </marker>
    <marker
       viewBox="0 0 10 10"
       refY="5"
       refX="0"
       orient="auto"
       markerWidth="4"
       markerUnits="strokeWidth"
       markerHeight="3"
       id="ArrowEnd">
      <path
         id="path3631"
         d="M 0 0 L 10 5 L 0 10 z" />
    </marker>
    <inkscape:perspective
       id="perspective2510"
       inkscape:persp3d-origin="306.082 : 204.39034 : 1"
       inkscape:vp_z="612.164 : 306.58551 : 1"
       inkscape:vp_y="0 : 1000 : 0"
       inkscape:vp_x="0 : 306.58551 : 1"
       sodipodi:type="inkscape:persp3d" />
    <marker
       viewBox="0 0 10 10"
       refY="5"
       refX="10"
       orient="auto"
       markerWidth="4"
       markerUnits="strokeWidth"
       markerHeight="3"
       id="marker2611">
      <path
         id="path1325"
         d="M 10 0 L 0 5 L 10 10 z" />
    </marker>
    <marker
       viewBox="0 0 10 10"
       refY="5"
       refX="0"
       orient="auto"
       markerWidth="4"
       markerUnits="strokeWidth"
       markerHeight="3"
       id="marker2608">
      <path
         id="path1322"
         d="M 0 0 L 10 5 L 0 10 z" />
    </marker>
    <inkscape:perspective
       id="perspective2605"
       inkscape:persp3d-origin="306.082 : 204.39034 : 1"
       inkscape:vp_z="612.164 : 306.58551 : 1"
       inkscape:vp_y="0 : 1000 : 0"
       inkscape:vp_x="0 : 306.58551 : 1"
       sodipodi:type="inkscape:persp3d" />
    <inkscape:perspective
       id="perspective2656"
       inkscape:persp3d-origin="372.04724 : 350.78739 : 1"
       inkscape:vp_z="744.09448 : 526.18109 : 1"
       inkscape:vp_y="0 : 1000 : 0"
       inkscape:vp_x="0 : 526.18109 : 1"
       sodipodi:type="inkscape:persp3d" />
    <inkscape:perspective
       id="perspective4707"
       inkscape:persp3d-origin="0.5 : 0.33333333 : 1"
       inkscape:vp_z="1 : 0.5 : 1"
       inkscape:vp_y="0 : 1000 : 0"
       inkscape:vp_x="0 : 0.5 : 1"
       sodipodi:type="inkscape:persp3d" />
    <clipPath
       id="clipoutline1"
       clipPathUnits="userSpaceOnUse">
      <path
         d="m 22.42,17.2 12.96,12.95 -2.5,8.78 -8.78,2.5 -12.96,-12.96 -5.86,5.86 14.89,21.46 17.56,-3.34 61.63,65.62 c 9.44,9.51 22.17,-4.75 13.34,-12.87 L 46.85,42.92 50.86,25.16 28.72,10.89 22.42,17.2 z m 81.06,91.97 c 1.68,-1.68 4.4,-1.68 6.08,0 1.68,1.68 1.68,4.4 0,6.08 -1.68,1.67 -4.4,1.67 -6.08,0 -1.68,-1.68 -1.68,-4.4 0,-6.08 z"
         id="outline1" />
    </clipPath>
    <inkscape:perspective
       id="perspective5296"
       inkscape:persp3d-origin="0.5 : 0.33333333 : 1"
       inkscape:vp_z="1 : 0.5 : 1"
       inkscape:vp_y="0 : 1000 : 0"
       inkscape:vp_x="0 : 0.5 : 1"
       sodipodi:type="inkscape:persp3d" />
    <clipPath
       id="clipoutline1-9"
       clipPathUnits="userSpaceOnUse">
      <path
         d="m 22.42,17.2 12.96,12.95 -2.5,8.78 -8.78,2.5 -12.96,-12.96 -5.86,5.86 14.89,21.46 17.56,-3.34 61.63,65.62 c 9.44,9.51 22.17,-4.75 13.34,-12.87 L 46.85,42.92 50.86,25.16 28.72,10.89 22.42,17.2 z m 81.06,91.97 c 1.68,-1.68 4.4,-1.68 6.08,0 1.68,1.68 1.68,4.4 0,6.08 -1.68,1.67 -4.4,1.67 -6.08,0 -1.68,-1.68 -1.68,-4.4 0,-6.08 z"
         id="outline1-7" />
    </clipPath>
  </defs>
  <g
     id="g1327">
    <path
       d="M 66.275,1.768 C 24.94,1.768 1.704,23.139 1.704,66.804 L 1.704,516.927 C 1.704,557.771 22.599,579.156 63.896,579.156 L 515.92,579.156 C 557.227,579.156 578.149,558.841 578.149,516.927 L 578.149,66.804 C 578.149,24.203 557.227,1.768 514.628,1.768 C 514.624,1.768 66.133,1.625 66.275,1.768 z"
       style="fill:#111111;stroke:#eeeeee;stroke-width:3.40799999"
       id="path1329" />
  </g>
  <path
     style="font-size:medium;font-style:normal;font-variant:normal;font-weight:normal;font-stretch:normal;text-indent:0;text-align:start;text-decoration:none;line-height:normal;letter-spacing:normal;word-spacing:normal;text-transform:none;direction:ltr;block-progression:tb;writing-mode:lr-tb;text-anchor:start;opacity:0.75;color:#000000;fill:#ffffff;fill-opacity:1;stroke:none;stroke-width:30.78683472;marker:none;visibility:visible;display:inline;overflow:visible;enable-background:accumulate;font-family:Bitstream Charter;-inkscape-font-specification:Bitstream Charter"
     d="M 288.875 46.5 A 15.394957 15.394957 0 0 0 274.875 56.09375 L 235.28125 149.8125 L 268.71875 149.8125 L 290.65625 97.875 L 312.65625 149.8125 L 346.09375 149.8125 L 306.375 56.09375 A 15.394957 15.394957 0 0 0 290.5625 46.59375 A 15.394957 15.394957 0 0 0 288.875 46.5 z M 127.96875 423.8125 L 95.3125 502.8125 A 15.394957 15.394957 0 1 0 123.75 514.5625 L 161.25 423.8125 L 127.96875 423.8125 z M 418 423.8125 L 424.09375 433.6875 L 457.46875 514.5625 A 15.399125 15.399125 0 1 0 485.9375 502.8125 L 453.28125 423.8125 L 418 423.8125 z "
     id="path3526" />
  <path
     style="fill:#ffffff;fill-opacity:1;stroke:none"
     d="m 71.654879,152.91997 5.063952,270.67799 435.065989,-4.51986 -2.35096,-267.78613 -437.778981,1.628 z m 318.482771,40.38298 c 1.1537,-0.006 2.31537,0.009 3.46747,0.0488 7.88726,-0.11941 15.96255,0.30671 23.68621,1.36745 36.18418,4.93808 67.52904,35.08881 71.84002,71.547 5.19228,28.67854 -4.01296,61.16539 -29.74206,77.45635 l 36.62816,0 0,35.6514 -83.85406,0 0,-38.2398 c 28.16775,-18.29131 36.78867,-58.17527 23.19783,-88.05409 -9.46122,-27.14063 -48.59941,-34.08038 -68.51908,-14.50467 -26.12217,29.01687 -19.46324,81.36082 13.528,102.55885 l 0,38.23979 -69.78884,0 c -13.02705,3.22698 -16.41409,-3.18604 -14.06522,-15.33499 1.3679,-8.3996 -5.04116,-24.57617 8.98611,-20.31641 8.42664,-0.36229 20.85442,0.72956 26.76298,-0.53722 -29.90421,-19.67126 -36.42736,-60.92804 -24.90715,-92.79133 10.89695,-35.13803 47.01461,-56.90107 82.77963,-57.0911 l 0,-3e-5 z m -299.276464,3.32094 46.981714,0 c 0.0125,14.94432 -0.0347,29.88872 0.0488,44.83287 -1.16558,21.33163 3.29572,45.07651 21.68387,58.31203 0.57786,-34.37897 0.21692,-68.76367 0.29303,-103.1449 l 47.03055,0 0,103.29141 c 6.70866,-5.30038 12.22465,-11.74705 15.96987,-19.43734 10.56784,-26.48967 4.63771,-56.04708 6.1047,-83.85407 l 46.98172,0 c -0.93206,28.71522 3.39029,58.19748 -4.78609,86.14944 -8.94346,28.26485 -32.78537,56.11869 -64.12368,58.89807 -0.23849,12.5662 -0.11784,25.13501 -0.14644,37.70259 l -47.03056,0 0,-37.65375 C 138.40572,340.29945 120.79819,325.60022 108.63806,308.99909 85.141109,277.81677 91.673366,236.46518 90.958869,199.94486 c -0.03256,-1.10699 -0.06511,-2.21398 -0.09766,-3.32097 l -2.3e-5,0 z"
     id="rect3530"
     sodipodi:nodetypes="cccccccccccccccccccccccccccccccccccccccccccc" />
  <rect
     y="149.82085"
     x="73.263283"
     height="273.98654"
     width="437.7486"
     id="rect3544"
     style="fill:none;stroke:#ffffff;stroke-width:20.52455710999999994;stroke-linecap:round;stroke-linejoin:round;stroke-miterlimit:4;stroke-opacity:1;stroke-dasharray:none;stroke-dashoffset:0" />
</svg>

<svg width="580" height="580" viewBox="0 0 580 580" fill="none" xmlns="http://www.w3.org/2000/svg">
<g clip-path="url(#clip0)">
<path d="M66.275 1.76799C24.94 1.76799 1.70398 23.139 1.70398 66.804V516.927C1.70398 557.771 22.599 579.156 63.896 579.156H515.92C557.227 579.156 578.149 558.841 578.149 516.927V66.804C578.149 24.203 557.227 1.76799 514.628 1.76799C514.624 1.76799 66.133 1.62499 66.275 1.76799Z" fill="#111111" stroke="#EEEEEE" stroke-width="3.408"/>
<path opacity="0.75" d="M288.875 46.5C285.858 46.5512 282.923 47.4878 280.434 49.1934C277.944 50.8991 276.012 53.2986 274.875 56.0938L235.281 149.812H268.719L290.656 97.875L312.656 149.812H346.094L306.375 56.0938C305.119 53.0149 302.899 50.4256 300.049 48.7132C297.199 47.0007 293.871 46.2572 290.562 46.5938C290.002 46.5316 289.439 46.5003 288.875 46.5V46.5ZM127.969 423.812L95.3125 502.812C94.453 504.695 93.9818 506.731 93.9269 508.799C93.872 510.867 94.2347 512.925 94.9931 514.85C95.7515 516.775 96.8902 518.528 98.3411 520.003C99.792 521.478 101.525 522.645 103.438 523.435C105.35 524.226 107.402 524.622 109.471 524.601C111.54 524.581 113.583 524.143 115.479 523.315C117.375 522.487 119.085 521.285 120.506 519.781C121.927 518.277 123.03 516.502 123.75 514.562L161.25 423.812H127.969ZM418 423.812L424.094 433.688L457.469 514.562C459.027 518.338 462.021 521.339 465.792 522.907C469.563 524.475 473.803 524.48 477.578 522.922C481.353 521.364 484.355 518.37 485.923 514.598C487.49 510.827 487.496 506.588 485.937 502.812L453.281 423.812H418Z" fill="white"/>
<path d="M71.6549 152.92L76.7189 423.598L511.785 419.078L509.434 151.292L71.6549 152.92V152.92ZM390.138 193.303C391.291 193.297 392.453 193.312 393.605 193.352C401.492 193.232 409.568 193.658 417.291 194.719C453.476 199.657 484.82 229.808 489.131 266.266C494.324 294.945 485.118 327.432 459.389 343.723H496.017V379.374H412.163V341.134C440.331 322.843 448.952 282.959 435.361 253.08C425.9 225.939 386.762 219 366.842 238.575C340.72 267.592 347.379 319.936 380.37 341.134V379.374H310.581C297.554 382.601 294.167 376.188 296.516 364.039C297.884 355.639 291.475 339.463 305.502 343.723C313.929 343.36 326.357 344.452 332.265 343.185C302.361 323.514 295.838 282.257 307.358 250.394C318.255 215.256 354.373 193.493 390.138 193.303V193.303V193.303ZM90.8612 196.624H137.843C137.855 211.568 137.808 226.513 137.892 241.457C136.726 262.788 141.187 286.533 159.576 299.769C160.153 265.39 159.793 231.005 159.869 196.624H206.899V299.915C213.608 294.615 219.124 288.168 222.869 280.478C233.437 253.988 227.507 224.431 228.974 196.624H275.955C275.023 225.339 279.346 254.821 271.169 282.773C262.226 311.038 238.384 338.892 207.046 341.671C206.807 354.238 206.928 366.806 206.899 379.374H159.869V341.72C138.406 340.299 120.798 325.6 108.638 308.999C85.1411 277.817 91.6734 236.465 90.9589 199.945C90.9263 198.838 90.8938 197.731 90.8612 196.624H90.8612V196.624Z" fill="white"/>
<path d="M511.012 149.821H73.2633V423.807H511.012V149.821Z" stroke="white" stroke-width="20.5246" stroke-linecap="round" stroke-linejoin="round"/>
</g>
<defs>
<clipPath id="clip0">
<path d="M0 0H580V580H0V0Z" fill="white"/>
</clipPath>
</defs>
</svg>
